images_sukapura_svg/cmd/lc_setoptimalcolumnwidth.svg

<svg viewBox="0 0 24 24" xmlns="http://www.w3.org/2000/svg" xmlns:xlink="http://www.w3.org/1999/xlink"><linearGradient id="a" gradientTransform="translate(75 -7)" gradientUnits="userSpaceOnUse" x1="14" x2="13.79661" y1="22" y2="2.135593"><stop offset="0" stop-color="#0040dd"/><stop offset="1" stop-color="#0a84ff"/></linearGradient><linearGradient id="b" gradientTransform="matrix(0 1 -1 0 23.998986 5.00647)" gradientUnits="userSpaceOnUse" x1="15.993529" x2="8.993529" xlink:href="#a" y1="2.998986" y2="2.998986"/><linearGradient id="c" gradientTransform="matrix(0 1 1 0 -.999934 5.006471)" gradientUnits="userSpaceOnUse" x1="15.993529" x2="8.993529" xlink:href="#a" y1="2.998986" y2="2.998986"/><path d="m9 3v18h5v-18z" fill="#fff"/><path d="m8 2v1 3 15 1h1 6v-1-3-1-3-1-3-1-3-4h-6zm1 1h5v2h-5zm0 3h5v3h-5zm0 4h5v3h-5zm0 4h5v3h-5zm0 4h5v3h-5z" fill="#69696e"/><path d="m9 5v1h5v-1zm0 4v1h5v-1zm0 4v1h5v-1zm0 4v1h5v-1z" fill="#bababa"/><g fill-rule="evenodd"><path d="m22.998986 17.484986c-.0024-.156011-.0775-.301958-.203125-.394532l-2.949219-2.943359c-.340526-.338253-.91584-.04927-.847656.425781v1.433594l-2.498986-.00647c-.276999-.000717-.5.223-.5.5v1.003906.996094c0 .277.223001.499283.5.5l2.498986.0065v1.394531c-.09891.489701.50302.805196.849609.445313l2.955079-2.957032c.125432-.09627.197873-.246222.195312-.404296z" fill="url(#b)"/><path d="m.000066 17.484986c.0024-.156011.0775-.301958.203125-.394532l2.949219-2.943359c.340526-.338253.91584-.04927.847656.425781v1.433594l2.498986-.00647c.276999-.000717.5.223.5.5v1.003906.996094c0 .277-.223001.499283-.5.5l-2.498986.0065v1.394531c.09891.489701-.50302.805196-.849609.445313l-2.955079-2.957032c-.125432-.09627-.197873-.246222-.195312-.404296z" fill="url(#c)"/></g></svg>

<?xml version="1.0" encoding="UTF-8" standalone="no"?>
<svg
   xmlns:dc="http://purl.org/dc/elements/1.1/"
   xmlns:cc="http://creativecommons.org/ns#"
   xmlns:rdf="http://www.w3.org/1999/02/22-rdf-syntax-ns#"
   xmlns:svg="http://www.w3.org/2000/svg"
   xmlns="http://www.w3.org/2000/svg"
   xmlns:xlink="http://www.w3.org/1999/xlink"
   xmlns:sodipodi="http://sodipodi.sourceforge.net/DTD/sodipodi-0.dtd"
   xmlns:inkscape="http://www.inkscape.org/namespaces/inkscape"
   viewBox="0 0 24 24"
   version="1.1"
   id="svg12"
   sodipodi:docname="lc_setoptimalcolumnwidth.svg"
   inkscape:version="0.92.3 (unknown)">
  <metadata
     id="metadata18">
    <rdf:RDF>
      <cc:Work
         rdf:about="">
        <dc:format>image/svg+xml</dc:format>
        <dc:type
           rdf:resource="http://purl.org/dc/dcmitype/StillImage" />
        <dc:title />
      </cc:Work>
    </rdf:RDF>
  </metadata>
  <defs
     id="defs16">
    <linearGradient
       gradientTransform="translate(75,-7)"
       id="a-367"
       gradientUnits="userSpaceOnUse"
       x1="14"
       x2="13.79661"
       y1="22"
       y2="2.1355929">
      <stop
         offset="0"
         stop-color="#0040dd"
         id="stop2206" />
      <stop
         offset="1"
         stop-color="#0a84ff"
         id="stop2208" />
    </linearGradient>
    <linearGradient
       inkscape:collect="always"
       xlink:href="#a-367"
       id="linearGradient879"
       x1="15.993529"
       y1="2.9989855"
       x2="8.9935293"
       y2="2.9989855"
       gradientUnits="userSpaceOnUse"
       gradientTransform="rotate(90,9.4962575,14.502728)" />
    <linearGradient
       inkscape:collect="always"
       xlink:href="#a-367"
       id="linearGradient875"
       gradientUnits="userSpaceOnUse"
       gradientTransform="matrix(0,1,1,0,-0.999934,5.0064705)"
       x1="15.993529"
       y1="2.9989855"
       x2="8.9935293"
       y2="2.9989855" />
  </defs>
  <sodipodi:namedview
     pagecolor="#ffffff"
     bordercolor="#666666"
     borderopacity="1"
     objecttolerance="10"
     gridtolerance="10"
     guidetolerance="10"
     inkscape:pageopacity="0"
     inkscape:pageshadow="2"
     inkscape:window-width="1366"
     inkscape:window-height="706"
     id="namedview14"
     showgrid="true"
     inkscape:snap-smooth-nodes="true"
     inkscape:zoom="13.906433"
     inkscape:cx="3.1520846"
     inkscape:cy="5.8446554"
     inkscape:window-x="0"
     inkscape:window-y="0"
     inkscape:window-maximized="1"
     inkscape:current-layer="svg12">
    <inkscape:grid
       type="xygrid"
       id="grid828"
       spacingx="0.5"
       spacingy="0.5"
       empspacing="2" />
  </sodipodi:namedview>
  <path
     d="m 9,3 v 18 h 5 V 3 Z"
     id="path2"
     inkscape:connector-curvature="0"
     style="fill:#ffffff"
     sodipodi:nodetypes="ccccc" />
  <path
     d="M 8 2 L 8 3 L 8 6 L 8 21 L 8 22 L 9 22 L 15 22 L 15 21 L 15 18 L 15 17 L 15 14 L 15 13 L 15 10 L 15 9 L 15 6 L 15 2 L 9 2 L 8 2 z M 9 3 L 14 3 L 14 5 L 9 5 L 9 3 z M 9 6 L 14 6 L 14 9 L 9 9 L 9 6 z M 9 10 L 14 10 L 14 13 L 9 13 L 9 10 z M 9 14 L 14 14 L 14 17 L 9 17 L 9 14 z M 9 18 L 14 18 L 14 21 L 9 21 L 9 18 z "
     id="path4"
     style="fill:#69696e;fill-opacity:1" />
  <path
     style="fill:#bababa;fill-opacity:1"
     d="M 9 5 L 9 6 L 14 6 L 14 5 L 9 5 z M 9 9 L 9 10 L 14 10 L 14 9 L 9 9 z M 9 13 L 9 14 L 14 14 L 14 13 L 9 13 z M 9 17 L 9 18 L 14 18 L 14 17 L 9 17 z "
     id="rect833" />
  <path
     style="fill:url(#linearGradient879);fill-opacity:1;fill-rule:evenodd"
     id="path8-5"
     d="m 22.998986,17.484986 c -0.0024,-0.156011 -0.0775,-0.301958 -0.203125,-0.394532 l -2.949219,-2.943359 c -0.340526,-0.338253 -0.91584,-0.04927 -0.847656,0.425781 V 16.00647 L 16.5,16 C 16.223001,15.999283 16,16.223 16,16.5 V 17.503906 18.5 c 0,0.277 0.223001,0.499283 0.5,0.5 l 2.498986,0.0065 v 1.394531 c -0.09891,0.489701 0.50302,0.805196 0.849609,0.445313 l 2.955079,-2.957032 c 0.125432,-0.09627 0.197873,-0.246222 0.195312,-0.404296 z"
     inkscape:connector-curvature="0"
     sodipodi:nodetypes="cccccsscssccccc" />
  <path
     sodipodi:nodetypes="cccccsscssccccc"
     inkscape:connector-curvature="0"
     d="m 6.6e-5,17.484986 c 0.0024,-0.156011 0.0775,-0.301958 0.203125,-0.394532 L 3.15241,14.147095 c 0.340526,-0.338253 0.91584,-0.04927 0.847656,0.425781 V 16.00647 L 6.499052,16 c 0.276999,-7.17e-4 0.5,0.223 0.5,0.5 V 17.503906 18.5 c 0,0.277 -0.223001,0.499283 -0.5,0.5 l -2.498986,0.0065 v 1.394531 c 0.09891,0.489701 -0.50302,0.805196 -0.849609,0.445313 L 0.195378,17.889312 C 0.069946,17.793042 -0.002495,17.64309 6.6e-5,17.485016 Z"
     id="path873"
     style="fill:url(#linearGradient875);fill-opacity:1;fill-rule:evenodd" />
</svg>
